X: 13934
T: Foxy Mary
R: jig
M: 6/8
K: Dmajor
DFA ABc|dAG FED|F2A def|g2b efg|
fdB AFA|BAG FGA|d2A BAG|FGED3:|
|:fdf afd|gfg bag|faf afd|g2b efg|
fdB AFA|BAG FGA|d2A BAG|FGED3:|

